X: 35890
T: Sandy Is My Darling
R: reel
M: 4/4
K: Aminor
E|"Am"{AB}[A2A2] ea "G"gedB|"C"c<GGE GAcG|"Am"{AB}[A2A2] ea "G"gedB|"C"cA"G"BG "Am"{AB}[A2A2] A:|
E|"Am"ABcd "Em"eg"G"dB|"C"c<GGE GAcG|"Am"ABcd "Em"eg"G"dB|"C"cA"G"BG "Am"{AB}[A2A2] AE|
"Am"ABcd "Em"eg"G"dB|"C"c<GGE Gceg|"Am"ae"G"gd "Em"edBa|"G"{ga}gedB "Am"{AB}[A2A2] A||

